X:89
T:Jack Stewarts Reel. VWMLa.089
%%VWML:Anon2-3049-p51-0
F:http://www.vwml.org/record/Anon2/3049/p51
R:Reel
S:Anon. MS, late 18thC, Vaughan Williams Mem. Library
O:England;Yorkshire
Z:vmp/efdss.Simon Wilson. Reviewed PJH 2008.
M:C|
L:1/8
Q:1/2=90
K:C
(ce/f/g).e gege|cege dBGB|\
(ce/f/).g.e gege|afge dBGB:|\
|:ceAe ceAe|ceAe (d/c/B/A/) GB|\
ceAe ceAg|afge dBGB:|
T:Miss Bakers Hornpipe. VWMLa.090
R:Hornpipe
S:Anon. MS, late 18thC, Vaughan Williams Mem. Library
N:triplets not marked as such..
O:England;Yorkshire
Z:vmp/efdss.Simon Wilson. Reviewed PJH 2008.
M:C|
L:1/8
Q:1/2=80
K:F
|:((3dcB)|A2F2- FAGF|EGB2- BdcB|Acde fcdB|A2F2- F2:|1
|:((3cde)|fcAc fagf|gece gbag|afge fdaf|e2c2- c2(fe)|\
((3efg) ((3ABc) B2ba|\
gfed {d}c2BA|((3Bcd) ((3GAB) DdcB|A2F2-F2:|
